X: 26
T: Carraroe Jig
M: 6/8
L: 1/8
R: Jig
K: D
E|DED F2 A|dfe d2 B|BAF Adf|afd e2 E|
DED F2 A|dfe d2 B|d2 B AFA|dAF E2 :|
D|dfa afa|bge edB|dfa afa|bge e2f|
dfa afa|bge edB|d2 B AFA|dAF E2 :|
